dist/img/monitor-2.svg

<svg width="89" height="80" viewBox="0 0 89 80" fill="none" xmlns="http://www.w3.org/2000/svg">
<path fill-rule="evenodd" clip-rule="evenodd" d="M11.9188 5.50411C11.6299 5.50411 11.358 5.32426 11.2532 5.03536L9.82859 1.07468C9.69547 0.706769 9.88807 0.301184 10.2534 0.168916C10.6245 0.0360811 11.0267 0.227261 11.1598 0.595459L12.5844 4.55614C12.7175 4.92406 12.5278 5.32964 12.1596 5.46219C12.0803 5.49051 11.9981 5.50411 11.9188 5.50411Z" fill="black"/>
<path fill-rule="evenodd" clip-rule="evenodd" d="M20.3931 5.99137C20.2288 5.99137 20.0617 5.93415 19.9286 5.81718C19.634 5.56029 19.6028 5.11307 19.8606 4.81823L22.3502 1.95988C22.6079 1.66504 23.0554 1.63445 23.35 1.89134C23.6445 2.14823 23.6757 2.59545 23.4179 2.89029L20.9284 5.74864C20.7867 5.90923 20.5913 5.99137 20.3931 5.99137Z" fill="black"/>
<path fill-rule="evenodd" clip-rule="evenodd" d="M72.8076 13.3328H84.7712C86.1336 13.3328 87.2382 14.4229 87.2382 15.768V61.7845C87.2382 63.1293 86.1336 64.2198 84.7712 64.2198H4.10182C2.73948 64.2198 1.63489 63.1293 1.63489 61.7845V15.768C1.63489 14.4229 2.73948 13.3328 4.10182 13.3328H72.8076Z" fill="black"/>
<path fill-rule="evenodd" clip-rule="evenodd" d="M84.7712 64.9231H4.10174C2.35421 64.9231 0.929565 63.5152 0.929565 61.7847V15.7681C0.929565 14.0373 2.35421 12.6296 4.10174 12.6296H63.764C64.152 12.6296 64.4664 12.9446 64.4664 13.3329C64.4664 13.7212 64.152 14.0362 63.764 14.0362H4.10174C3.13026 14.0362 2.33722 14.8131 2.33722 15.7681V61.7847C2.33722 62.7397 3.13026 63.5166 4.10174 63.5166H84.7712C85.7426 63.5166 86.5357 62.7397 86.5357 61.7847V15.7681C86.5357 14.8131 85.7426 14.0362 84.7712 14.0362H72.8075C72.4195 14.0362 72.1023 13.7212 72.1023 13.3329C72.1023 12.9446 72.4195 12.6296 72.8075 12.6296H84.7712C86.5187 12.6296 87.9433 14.0373 87.9433 15.7681V61.7847C87.9433 63.5152 86.5187 64.9231 84.7712 64.9231Z" fill="#242B42"/>
<path fill-rule="evenodd" clip-rule="evenodd" d="M72.8076 12.5845H84.7712C86.1336 12.5845 87.2382 13.6896 87.2382 15.0531V52.0919C87.2382 53.4553 86.1336 54.5608 84.7712 54.5608H4.10182C2.73948 54.5608 1.63489 53.4553 1.63489 52.0919V15.0531C1.63489 13.6896 2.73948 12.5845 4.10182 12.5845H74.8837H72.8076Z" fill="white"/>
<path fill-rule="evenodd" clip-rule="evenodd" d="M74.8837 13.34H19.2093C18.8184 13.34 18.5012 13.0228 18.5012 12.6319C18.5012 12.2408 18.8184 11.9238 19.2093 11.9238H74.8837C75.2746 11.9238 75.5918 12.2408 75.5918 12.6319C75.5918 13.0228 75.2746 13.34 74.8837 13.34Z" fill="black"/>
<path fill-rule="evenodd" clip-rule="evenodd" d="M84.7712 55.316H4.10176C2.3514 55.316 0.926758 53.8911 0.926758 52.1393V15.1005C0.926758 13.3488 2.3514 11.9238 4.10176 11.9238H11.2505C11.6413 11.9238 11.9585 12.2408 11.9585 12.6319C11.9585 13.0228 11.6413 13.34 11.2505 13.34H4.10176C3.13028 13.34 2.34291 14.1296 2.34291 15.1005V52.1393C2.34291 53.1102 3.13028 53.8999 4.10176 53.8999H84.7712C85.7427 53.8999 86.53 53.1102 86.53 52.1393V15.1005C86.53 14.1296 85.7427 13.34 84.7712 13.34H72.8076C72.4167 13.34 72.0995 13.0228 72.0995 12.6319C72.0995 12.2408 72.4167 11.9238 72.8076 11.9238H84.7712C86.5215 11.9238 87.9462 13.3488 87.9462 15.1005V52.1393C87.9462 53.8911 86.5215 55.316 84.7712 55.316Z" fill="black"/>
<path fill-rule="evenodd" clip-rule="evenodd" d="M36.3645 76.1155H52.5086V59.9714H36.3645V76.1155Z" fill="black"/>
<path fill-rule="evenodd" clip-rule="evenodd" d="M37.0724 75.4075H51.8003V60.6796H37.0724V75.4075ZM52.5084 76.8237H36.3643C35.9735 76.8237 35.6562 76.5067 35.6562 76.1156V59.9715C35.6562 59.5804 35.9735 59.2634 36.3643 59.2634H52.5084C52.8993 59.2634 53.2165 59.5804 53.2165 59.9715V76.1156C53.2165 76.5067 52.8993 76.8237 52.5084 76.8237Z" fill="black"/>
<path fill-rule="evenodd" clip-rule="evenodd" d="M55.4116 78.0508H33.4613C32.5096 78.0508 31.7393 77.2793 31.7393 76.3279V75.9031C31.7393 74.9514 32.5096 74.1799 33.4613 74.1799H55.4116C56.3632 74.1799 57.1336 74.9514 57.1336 75.9031V76.3279C57.1336 77.2793 56.3632 78.0508 55.4116 78.0508Z" fill="black"/>
<path fill-rule="evenodd" clip-rule="evenodd" d="M33.4612 75.0682C33.0024 75.0682 32.6257 75.4426 32.6257 75.9031V76.328C32.6257 76.7882 33.0024 77.1626 33.4612 77.1626H55.4115C55.8732 77.1626 56.247 76.7882 56.247 76.328V75.9031C56.247 75.4426 55.8732 75.0682 55.4115 75.0682H33.4612ZM55.4115 78.9388H33.4612C32.0224 78.9388 30.8499 77.7676 30.8499 76.328V75.9031C30.8499 74.4632 32.0224 73.2917 33.4612 73.2917H55.4115C56.8503 73.2917 58.0229 74.4632 58.0229 75.9031V76.328C58.0229 77.7676 56.8503 78.9388 55.4115 78.9388Z" fill="black"/>
<path fill-rule="evenodd" clip-rule="evenodd" d="M9.41504 47.6831H23.4774V38.7761H9.41504V47.6831Z" fill="#EA4435"/>
<path fill-rule="evenodd" clip-rule="evenodd" d="M37.4038 47.6833H51.469V33.0242H37.4038V47.6833Z" fill="#EA4435"/>
<path fill-rule="evenodd" clip-rule="evenodd" d="M65.3955 47.6832H79.4579V26.5098H65.3955V47.6832Z" fill="#EA4435"/>
<path fill-rule="evenodd" clip-rule="evenodd" d="M35.0898 41.4813H26.0264C25.6356 41.4813 25.3184 41.1644 25.3184 40.7733C25.3184 40.3824 25.6356 40.0652 26.0264 40.0652H35.0898C35.4806 40.0652 35.7978 40.3824 35.7978 40.7733C35.7978 41.1644 35.4806 41.4813 35.0898 41.4813Z" fill="black"/>
<path fill-rule="evenodd" clip-rule="evenodd" d="M62.9626 41.4813H53.8992C53.5084 41.4813 53.1912 41.1644 53.1912 40.7733C53.1912 40.3824 53.5084 40.0652 53.8992 40.0652H62.9626C63.3534 40.0652 63.6707 40.3824 63.6707 40.7733C63.6707 41.1644 63.3534 41.4813 62.9626 41.4813Z" fill="black"/>
<path fill-rule="evenodd" clip-rule="evenodd" d="M50.6081 74.1398H38.5482C38.1573 74.1398 37.8401 73.8228 37.8401 73.4317C37.8401 73.0406 38.1573 72.7236 38.5482 72.7236H50.6081C50.9989 72.7236 51.3161 73.0406 51.3161 73.4317C51.3161 73.8228 50.9989 74.1398 50.6081 74.1398Z" fill="#F5F8FA"/>
<path fill-rule="evenodd" clip-rule="evenodd" d="M16.4449 33.0718C16.1164 33.0718 15.8218 32.8421 15.7538 32.5076C15.6717 32.1249 15.9181 31.7499 16.3005 31.6701L74.3625 19.5855C74.7449 19.5068 75.1187 19.7518 75.198 20.1347C75.2802 20.5173 75.0338 20.8923 74.6514 20.9722L16.5894 33.0568C16.5412 33.0667 16.4931 33.0718 16.4449 33.0718Z" fill="black"/>
<path fill-rule="evenodd" clip-rule="evenodd" d="M19.2093 32.3634C19.2093 33.89 17.9716 35.1278 16.445 35.1278C14.9184 35.1278 13.6807 33.89 13.6807 32.3634C13.6807 30.8366 14.9184 29.5991 16.445 29.5991C17.9716 29.5991 19.2093 30.8366 19.2093 32.3634Z" fill="white"/>
<path fill-rule="evenodd" clip-rule="evenodd" d="M16.4448 30.307C15.3119 30.307 14.3886 31.2295 14.3886 32.3633C14.3886 33.497 15.3119 34.4195 16.4448 34.4195C17.5806 34.4195 18.5011 33.497 18.5011 32.3633C18.5011 31.2295 17.5806 30.307 16.4448 30.307ZM16.4448 35.8357C14.5302 35.8357 12.9724 34.2779 12.9724 32.3633C12.9724 30.4486 14.5302 28.8909 16.4448 28.8909C18.3594 28.8909 19.9172 30.4486 19.9172 32.3633C19.9172 34.2779 18.3594 35.8357 16.4448 35.8357Z" fill="black"/>
<path fill-rule="evenodd" clip-rule="evenodd" d="M47.2008 26.4274C47.2008 27.954 45.963 29.1914 44.4364 29.1914C42.9098 29.1914 41.6721 27.954 41.6721 26.4274C41.6721 24.9005 42.9098 23.6631 44.4364 23.6631C45.963 23.6631 47.2008 24.9005 47.2008 26.4274Z" fill="white"/>
<path fill-rule="evenodd" clip-rule="evenodd" d="M44.4365 24.3712C43.3036 24.3712 42.3803 25.2937 42.3803 26.4275C42.3803 27.5612 43.3036 28.4834 44.4365 28.4834C45.5694 28.4834 46.4928 27.5612 46.4928 26.4275C46.4928 25.2937 45.5694 24.3712 44.4365 24.3712ZM44.4365 29.8996C42.5219 29.8996 40.9641 28.3421 40.9641 26.4275C40.9641 24.5126 42.5219 22.9551 44.4365 22.9551C46.3511 22.9551 47.9089 24.5126 47.9089 26.4275C47.9089 28.3421 46.3511 29.8996 44.4365 29.8996Z" fill="black"/>
<path fill-rule="evenodd" clip-rule="evenodd" d="M77.2713 20.2787C77.2713 21.8056 76.0336 23.043 74.507 23.043C72.9804 23.043 71.7427 21.8056 71.7427 20.2787C71.7427 18.7521 72.9804 17.5144 74.507 17.5144C76.0336 17.5144 77.2713 18.7521 77.2713 20.2787Z" fill="white"/>
<path fill-rule="evenodd" clip-rule="evenodd" d="M74.5071 18.2225C73.3713 18.2225 72.4508 19.145 72.4508 20.2788C72.4508 21.4126 73.3713 22.335 74.5071 22.335C75.64 22.335 76.5633 21.4126 76.5633 20.2788C76.5633 19.145 75.64 18.2225 74.5071 18.2225ZM74.5071 23.7512C72.5924 23.7512 71.0347 22.1934 71.0347 20.2788C71.0347 18.3642 72.5924 16.8064 74.5071 16.8064C76.4217 16.8064 77.9795 18.3642 77.9795 20.2788C77.9795 22.1934 76.4217 23.7512 74.5071 23.7512Z" fill="black"/>
</svg>

<svg width="89" height="80" fill="none" xmlns="http://www.w3.org/2000/svg"><path fill-rule="evenodd" clip-rule="evenodd" d="M11.919 5.504a.71.71 0 01-.666-.469L9.83 1.075a.708.708 0 011.33-.48l1.425 3.961a.707.707 0 01-.665.948zm8.474.487a.707.707 0 01-.532-1.173l2.49-2.858a.71.71 0 011.067.93l-2.49 2.859a.71.71 0 01-.535.242zm52.415 7.342H84.77c1.363 0 2.467 1.09 2.467 2.435v46.017c0 1.344-1.104 2.435-2.467 2.435H4.101c-1.362 0-2.466-1.09-2.466-2.435V15.767c0-1.345 1.104-2.435 2.467-2.435h68.706z" fill="#000"/><path fill-rule="evenodd" clip-rule="evenodd" d="M84.771 64.923H4.101c-1.747 0-3.171-1.408-3.171-3.138V15.768c0-1.73 1.424-3.138 3.172-3.138h59.662a.703.703 0 010 1.406H4.102c-.972 0-1.765.777-1.765 1.732v46.017c0 .955.793 1.732 1.765 1.732h80.67c.97 0 1.764-.777 1.764-1.732V15.768c0-.955-.793-1.732-1.765-1.732H72.808a.705.705 0 01-.706-.703c0-.388.317-.703.706-.703H84.77c1.748 0 3.172 1.407 3.172 3.138v46.017c0 1.73-1.424 3.138-3.172 3.138z" fill="#242B42"/><path fill-rule="evenodd" clip-rule="evenodd" d="M72.808 12.585H84.77a2.468 2.468 0 012.467 2.468v37.039a2.468 2.468 0 01-2.467 2.469H4.101a2.468 2.468 0 01-2.466-2.47V15.054a2.468 2.468 0 012.467-2.469h70.782-2.076z" fill="#fff"/><path fill-rule="evenodd" clip-rule="evenodd" d="M74.884 13.34H19.209a.708.708 0 010-1.416h55.675a.708.708 0 010 1.416z" fill="#000"/><path fill-rule="evenodd" clip-rule="evenodd" d="M84.771 55.316H4.101a3.18 3.18 0 01-3.174-3.177V15.101a3.18 3.18 0 013.175-3.177h7.149a.708.708 0 010 1.416H4.1a1.76 1.76 0 00-1.758 1.76v37.04c0 .97.787 1.76 1.759 1.76h80.67a1.76 1.76 0 001.758-1.76V15.1c0-.97-.787-1.76-1.759-1.76H72.808a.708.708 0 010-1.416H84.77a3.18 3.18 0 013.175 3.177v37.038a3.18 3.18 0 01-3.175 3.177zM36.364 76.115H52.51V59.971H36.364v16.145z" fill="#000"/><path fill-rule="evenodd" clip-rule="evenodd" d="M37.072 75.407H51.8V60.68H37.072v14.727zm15.436 1.417H36.364a.708.708 0 01-.708-.708V59.97a.71.71 0 01.708-.708h16.144a.71.71 0 01.709.709v16.144a.708.708 0 01-.709.708z" fill="#000"/><path fill-rule="evenodd" clip-rule="evenodd" d="M55.412 78.05h-21.95a1.722 1.722 0 01-1.723-1.722v-.425c0-.952.77-1.723 1.722-1.723h21.95c.952 0 1.723.771 1.723 1.723v.425c0 .951-.77 1.723-1.722 1.723z" fill="#000"/><path fill-rule="evenodd" clip-rule="evenodd" d="M33.461 75.068a.837.837 0 00-.835.835v.425c0 .46.376.835.835.835h21.95a.835.835 0 00.836-.835v-.425a.835.835 0 00-.836-.835h-21.95zm21.95 3.87h-21.95a2.615 2.615 0 01-2.611-2.61v-.425a2.615 2.615 0 012.611-2.611h21.95a2.615 2.615 0 012.612 2.611v.425c0 1.44-1.173 2.61-2.612 2.61z" fill="#000"/><path fill-rule="evenodd" clip-rule="evenodd" d="M9.415 47.683h14.062v-8.907H9.415v8.907zm27.989 0h14.065V33.024H37.404v14.66zm27.991 0h14.063V26.51H65.395v21.173z" fill="#EA4435"/><path fill-rule="evenodd" clip-rule="evenodd" d="M35.09 41.481h-9.064a.708.708 0 010-1.416h9.064a.708.708 0 010 1.416zm27.873 0h-9.064a.708.708 0 010-1.416h9.064a.708.708 0 010 1.416z" fill="#000"/><path fill-rule="evenodd" clip-rule="evenodd" d="M50.608 74.14h-12.06a.708.708 0 010-1.416h12.06a.708.708 0 010 1.416z" fill="#F5F8FA"/><path fill-rule="evenodd" clip-rule="evenodd" d="M16.445 33.072a.705.705 0 01-.691-.564.705.705 0 01.546-.838l58.063-12.085a.707.707 0 01.835.55.705.705 0 01-.547.837L16.59 33.057a.716.716 0 01-.144.015z" fill="#000"/><path fill-rule="evenodd" clip-rule="evenodd" d="M19.21 32.363a2.764 2.764 0 11-5.53 0 2.764 2.764 0 015.53 0z" fill="#fff"/><path fill-rule="evenodd" clip-rule="evenodd" d="M16.445 30.307a2.06 2.06 0 00-2.056 2.056 2.057 2.057 0 102.056-2.056zm0 5.529a3.476 3.476 0 01-3.473-3.473 3.476 3.476 0 013.473-3.472 3.476 3.476 0 013.472 3.472 3.476 3.476 0 01-3.472 3.473z" fill="#000"/><path fill-rule="evenodd" clip-rule="evenodd" d="M47.2 26.427a2.764 2.764 0 11-5.528 0 2.764 2.764 0 015.529 0z" fill="#fff"/><path fill-rule="evenodd" clip-rule="evenodd" d="M44.437 24.371a2.06 2.06 0 00-2.057 2.056 2.06 2.06 0 002.056 2.056 2.059 2.059 0 002.057-2.056 2.06 2.06 0 00-2.056-2.056zm0 5.529a3.476 3.476 0 01-3.473-3.473 3.476 3.476 0 013.473-3.472 3.476 3.476 0 013.472 3.473 3.476 3.476 0 01-3.472 3.472z" fill="#000"/><path fill-rule="evenodd" clip-rule="evenodd" d="M77.271 20.279a2.764 2.764 0 11-5.528 0 2.764 2.764 0 015.528 0z" fill="#fff"/><path fill-rule="evenodd" clip-rule="evenodd" d="M74.507 18.223a2.057 2.057 0 000 4.112 2.06 2.06 0 002.056-2.056 2.06 2.06 0 00-2.056-2.056zm0 5.528a3.476 3.476 0 01-3.472-3.472 3.476 3.476 0 013.472-3.473 3.476 3.476 0 013.472 3.473 3.476 3.476 0 01-3.472 3.472z" fill="#000"/></svg>
